X: 40650
T: Top It Off
R: slip jig
M: 9/8
K: Dmajor
|:B|A2F F3 d2A|Bcde2cd2B|A2F F3 d2A|Bcd A2F D2A D2B|
A2F F3 d2A|Bcd e2c d2B|A2F F3 d2A|Bcd A2F D2:|
|:g|f2d d2c d2f|e2=c c2B c2e|d2B B2A B2d|^c2A A2e a2g|
f2d d2c d2f|e2=c c2B c2e|d2A B^cd e2c|d3 d3 d2:|

